X:1
T:Una sañosa porfia
T:Una sañosa porfia
T:Juan del Encina (1468-1529)
C:Juan del Encina (1468-1529)
%%score [ 1 2 3 4 ]
L:1/8
Q:1/4=130
M:2/2
K:C
V:1 treble nm="Soprano"
V:2 treble nm="Alto"
V:3 treble-8 nm="Tenor"
V:4 bass nm="Bass"
V:1
 D4 D4 | E6 E2 | F4 F4 | G8 | F8 | !fermata!E8 | E4 E4 | F6 F2 | G4 G4 | A8 | B4 c4- | c4 B4 | A8 | %13
w: U- na|sa- ño-|sa por-|fi-||a.|Sin ven-|tu- ra|va pu-|jan-||||
 G8 | F8 | !fermata!E8 | A4 A4 | F6 F2 | G4 G4 | E8 | D8 | C8 | C4 C4 | D4 F4 | E4 E4 | D8 | D8 | %27
w: ||do.|Ya nun-|ca tu-|ve a- le-|gri-||a.|Ya mi|mal se|va or-|de-|nan-|
 E8 | F4 G4 | A8 | B4 c4- | c4 B4 | A8 | G8 | F2 E2 F4 | !fermata!E8 |] %36
w: ||||||||do.|
V:2
 D4 D4 | E6 E2 | F4 F4 | G8 | F8 | !fermata!E8 | E4 E4 | F6 F2 | G4 G4 | A8 | B4 c4- | c4 B4 | A8 | %13
w: U- na|sa- ño-|sa por-|fi-||a.|Sin ven-|tu- ra|va pu-|jan-||||
 G8 | F8 | !fermata!E8 | F4 F4 | D6 D2 | E4 E4 | C8 | B,8 | C8 | C4 C4 | B,4 D4 | C4 C4 | D8 | D8 | %27
w: ||do.|Ya nun-|ca tu-|ve a- le-|gri-||a.|Ya mi|mal se|va or-|de-|nan-|
 ^C8 | D4 E4 | F8 | G4 E4 | F4 G4 | F8 | E8 | D8 | !fermata!^C8 |] %36
w: ||||||||do.|
V:3
 A4 A4 | A6 A2 | A4 A4 | c8 | A8 | !fermata!A8 | A4 A4 | A6 A2 | c4 c4 | c4 d4- | d4 c4- | c4 d4- | %12
w: U- na|sa- ño-|sa por-|fi-||a.|Sin ven-|tu- ra|va pu-|jan- *|||
 d4 c4- | c2 B2 c4 | A8 | !fermata!A8 | c4 d4 | A6 A2 | c4 c4 | G8- | G8 | G8 | G4 G4 | G4 A4 | %24
w: |||do.|Ya nun-|ca tu-|ve a- le-|gri-||a.|Ya mi|mal se|
 A4 A4 | A8 | A8- | A8- | A4 c4- | c4 d4- | d4 c4- | c4 d4- | d4 c4- | c2 B2 c4 | A8 | %35
w: va or-|de-|nan-|||||||||
 !fermata!A8 |] %36
w: do.|
V:4
 D,4 D,4 | A,,6 A,,2 | D,4 D,4 | C,8 | D,8 | !fermata!A,,8 | A,,4 A,,4 | D,6 D,2 | C,4 C,4 | %9
w: U- na|sa- ño-|sa por-|fi-||a.|Sin ven-|tu- ra|va pu-|
 F,4 D,4 | G,4 A,4- | A,4 G,4 | D,4 F,4 | C,8 | D,8 | !fermata!A,,8 | F,4 D,4 | D,6 D,2 | C,4 C,4 | %19
w: jan- *||||||do.|Ya nun-|ca tu-|ve a- le-|
 C,8 | G,,8 | C,8 | C,4 C,4 | G,,4 D,4 | A,,4 A,,4 | D,8 | D,8 | A,,8 | D,4 C,4 | F,4 D,4 | %30
w: gri-||a.|Ya mi|mal se|va or-|de-|nan-||||
 G,4 A,4- | A,4 G,4 | D,4 F,4 | C,8 | D,8 | !fermata!A,,8 |] %36
w: |||||do.|

